art/star_hollow_2_spacing.svg

<svg enable-background="new 0 0 21.775 20.762" height="20.762" viewBox="0 0 21.775 20.762" width="21.775" xmlns="http://www.w3.org/2000/svg"><path d="m14.152 11.931 3.009-2.931c.397-.388.308-.758-.148-.9-.008-.003-.012-.011-.02-.014-.068-.03-.174-.07-.328-.092l-4.053-.589c-.279-.04-.589-.184-.86-.379-.142-.104-.272-.221-.386-.345-.105-.117-.194-.241-.255-.365l-1.813-3.676c-.02-.04-.044-.07-.066-.107l-.019-.038c-.009-.018-.021-.023-.03-.04-.012-.015-.023-.032-.035-.046-.129-.208-.28-.333-.438-.333-.15 0-.294.119-.419.309-.01.011-.018.025-.027.036-.017.029-.039.041-.055.074l-.026.052c-.02.033-.041.053-.06.093l-1.814 3.674c-.062.126-.152.252-.259.371-.112.121-.239.236-.376.336-.274.199-.586.344-.867.385l-4.054.588c-.055.008-.119.033-.18.051s0 0-.001 0c-.05.015-.095.025-.142.048-.475.138-.572.513-.168.907l3.007 2.931c.431.422.699 1.233.622 1.842l-.687 4.005c-.004.025 0 .045-.002.068l-.022.133c-.077.446.094.708.404.708.118 0 .255-.038.407-.117l3.717-1.955c.276-.145.641-.216 1.003-.216.364 0 .729.072 1.004.216l3.718 1.955c.149.079.289.117.406.117.312 0 .481-.262.405-.708l-.03-.174c-.001-.012.002-.019 0-.03l-.682-3.962c-.093-.613.181-1.452.62-1.882zm-1.619 1.975.574 3.35-3.003-1.581c-.386-.203-.881-.315-1.395-.315-.511 0-1.005.112-1.393.315l-3.007 1.57.572-3.34c.153-.884-.217-2.023-.861-2.65l-2.424-2.373 3.354-.487c.887-.128 1.857-.833 2.255-1.639l1.495-3.067 1.513 3.068c.397.806 1.367 1.51 2.255 1.637l3.355.496-2.432 2.367c-.638.627-1.007 1.766-.858 2.649z" fill="#393a3b"/></svg>

<?xml version="1.0" encoding="utf-8"?>
<!-- Generator: Adobe Illustrator 16.0.3, SVG Export Plug-In . SVG Version: 6.00 Build 0)  -->
<!DOCTYPE svg PUBLIC "-//W3C//DTD SVG 1.0//EN" "http://www.w3.org/TR/2001/REC-SVG-20010904/DTD/svg10.dtd">
<svg version="1.0" id="Ebene_1" xmlns="http://www.w3.org/2000/svg" xmlns:xlink="http://www.w3.org/1999/xlink" x="0px" y="0px"
	 width="21.775px" height="20.762px" viewBox="0 0 21.775 20.762" enable-background="new 0 0 21.775 20.762" xml:space="preserve">
<path fill="#393A3B" d="M14.152,11.931L17.161,9c0.397-0.388,0.308-0.758-0.148-0.9c-0.008-0.003-0.012-0.011-0.02-0.014
	c-0.068-0.03-0.174-0.07-0.328-0.092l-4.053-0.589c-0.279-0.04-0.589-0.184-0.86-0.379c-0.142-0.104-0.272-0.221-0.386-0.345
	c-0.105-0.117-0.194-0.241-0.255-0.365L9.298,2.64C9.278,2.6,9.254,2.57,9.232,2.533L9.213,2.495
	c-0.009-0.018-0.021-0.023-0.03-0.04C9.171,2.44,9.16,2.423,9.148,2.409C9.019,2.201,8.868,2.076,8.71,2.076
	c-0.15,0-0.294,0.119-0.419,0.309C8.281,2.396,8.273,2.41,8.264,2.421C8.247,2.45,8.225,2.462,8.209,2.495L8.183,2.547
	C8.163,2.58,8.142,2.6,8.123,2.64L6.309,6.314C6.247,6.44,6.157,6.566,6.05,6.685C5.938,6.806,5.811,6.921,5.674,7.021
	C5.4,7.22,5.088,7.365,4.807,7.406L0.753,7.994c-0.055,0.008-0.119,0.033-0.18,0.051h0c0,0,0,0-0.001,0
	C0.522,8.06,0.477,8.07,0.43,8.093C-0.045,8.231-0.142,8.606,0.262,9l3.007,2.931c0.431,0.422,0.699,1.233,0.622,1.842l-0.687,4.005
	c-0.004,0.025,0,0.045-0.002,0.068l-0.022,0.133c-0.077,0.446,0.094,0.708,0.404,0.708c0.118,0,0.255-0.038,0.407-0.117l3.717-1.955
	c0.276-0.145,0.641-0.216,1.003-0.216c0.364,0,0.729,0.072,1.004,0.216l3.718,1.955c0.149,0.079,0.289,0.117,0.406,0.117
	c0.312,0,0.481-0.262,0.405-0.708l-0.03-0.174c-0.001-0.012,0.002-0.019,0-0.03l-0.682-3.962
	C13.439,13.2,13.713,12.361,14.152,11.931z M12.533,13.906l0.574,3.35l-3.003-1.581c-0.386-0.203-0.881-0.315-1.395-0.315
	c-0.511,0-1.005,0.112-1.393,0.315l-3.007,1.57l0.572-3.34c0.153-0.884-0.217-2.023-0.861-2.65L1.596,8.882l3.354-0.487
	c0.887-0.128,1.857-0.833,2.255-1.639L8.7,3.689l1.513,3.068c0.397,0.806,1.367,1.51,2.255,1.637l3.355,0.496l-2.432,2.367
	C12.753,11.884,12.384,13.023,12.533,13.906z"/>
</svg>
